!!!COM: Bach, Johann Sebastian
!!!OPR: Joh. Seb. Bachs vierstimmige Choralgesänge
!!!XEN: Four-part Chorales
!!!OTL: Chorale 34. Dank sei Gott in der Höhe
!!!SCT: BWV 287
!!!SCA: Thematisch-systematisches Verzeichnis der musikalischen Werke Johann Sebastian Bach: Bach-Werke-Verzeichnis (Schmieder)
!!!YOR: Bach Gesellschaft Edition xxxix
!!!ENC: Steven Rasmussen
!!!CDT: 1685/3//-1750/7/28/
!!!OCY: Deutschland
!!!YEC: Copyright (c) 1994, 2000 Center for Computer Assisted Research in the Humanities
!!!YEM: Rights to all derivative editions reserved
!!!YEN: United States of America
**kern	**kern	**kern	**kern	**silbe
*I:[BASSO]	*I:[TENORE]	*I:[ALTO]	*I:[SOPRANO]	*I:[SOPRANO]
*>[A,A,B]	*>[A,A,B]	*>[A,A,B]	*>[A,A,B]	*
*>A	*>A	*>A	*>A	*
*clefF4	*clefGv2	*clefG2	*clefG2	*
*k[b-]	*k[b-]	*k[b-]	*k[b-]	*
*F:	*F:	*F:	*F:	*
*M4/4	*M4/4	*M4/4	*M4/4	*
4E	4c	4g	4cc	Dankdurch
=1	=1	=1	=1	=1
8FL	4c	8fL	4a	seiden
8E-J	.	8gJ	.	.
8DL	4e-	4a	4cc	Gottich
8CJ	.	.	.	.
4BB-	4f	8b-L	4dd	inauf-
.	.	8aJ	.	.
4C	4en	8gL	4cc	der-er-
.	.	8aJ	.	.
=2	=2	=2	=2	=2
4D	4f	8b-L	2b-	HÃ¶--ste-
.	.	8aJ	.	.
4E	4c	4g	.	.
4F;	4c;	4f;	4a;	-he-he
4F	4c	4f	4a	invom
=3	=3	=3	=3	=3
8B-L	4c	4e	4g	die-Schlaf
8AJ	.	.	.	.
8GL	4c	4f	4a	-serfrisch
8FJ	.	.	.	.
4c	8cL	4f	4g	Mor-und
.	16B-L	.	.	.
.	16AJJ	.	.	.
4C	4B-	4e	4g	-gen-ge-
=4	=4	=4	=4	=4
2.F;	2.A;	2.c;	2.f;	-stund',-sund.
=:|!	=:|!	=:|!	=:|!	=:|!
*>B	*>B	*>B	*>B	*
8EL	4G	8cL	4g	Mich
8DJ	.	8dJ	.	.
=5	=5	=5	=5	=5
8CL	4c	4e	4g	hat-
8cJ	.	.	.	.
8B-L	4F	4c	4a	-te
8AJ	.	.	.	.
8GL	8B-L	4d	4b-	zwar
8FJ	8AJ	.	.	.
4E	4G	4c	8ccL	ge-
.	.	.	8b-J	.
=6	=6	=6	=6	=6
4F	8AL	4.c	2a	-bun-
.	8GJ	.	.	.
8AAL	4F	.	.	.
8BB-J	.	8d	.	.
4C;	4c;	4e;	4g;	-den
4C	4c	4e	4g	mit
=7	=7	=7	=7	=7
8FL	8cL	4f	8aL	Fin-
8EJ	8dJ	.	8bnJ	.
8DL	4e	4g	4cc	-ster-
8CJ	.	.	.	.
4F	4.d	4a	8ddL	-niss
.	.	.	8ccJ	.
4G	.	4g	4b	die
.	16eLL	.	.	.
.	16fJJ	.	.	.
=8	=8	=8	=8	=8
2.C;	2.e;	2.g;	2.cc;	Nacht,
4C	4G	4e	4cc	ich
=9	=9	=9	=9	=9
(8F	4A	4c	4a	hab'
4E-)	.	.	.	.
.	4A	4f	4cc	sie
16DLL	.	.	.	.
16CJJ	.	.	.	.
8BB-L	4B-	4f	4dd	Ã¼-
8AJ	.	.	.	.
8GL	4A	4e-	4cc	-ber-
8F#J	.	.	.	.
=10	=10	=10	=10	=10
8GL	8B-L	4.d	2b-	-wun-
8A	8cJ	.	.	.
8B-	4d	.	.	.
8cJ	.	8e	.	.
4d;	4d;	4f#;	4a;	-den
8dL	4f	4d	4a	mit
8cJ	.	.	.	.
=11	=11	=11	=11	=11
8B-L	4c	4e	4g	Gott,
8AJ	.	.	.	.
8GL	4c	4f	4a	der
8FJ	.	.	.	.
4c	8cL	4f	4g	mich
.	16B-L	.	.	.
.	16AJJ	.	.	.
4C	4B-	4e	4g	be-
=12	=12	=12	=12	=12
2.F;	2.A;	2.c;	2.f;	-wacht.
==|!	==|!	==|!	==|!	==|!
*-	*-	*-	*-	*-
!!!RWG: Key is interpreted using the Humdrum key tool.
!!!URL-pdf: https://s9.imslp.org/files/imglnks/usimg/6/6b/IMSLP24489-PMLP09471-CCARH_Bach_Chorales.pdf#page=24 Musedata edition
!!!URL-pdf: https://s9.imslp.org/files/imglnks/usimg/7/7a/IMSLP04155-Bach_-_BGA_253-438.pdf#page=20 	Bach-Gesellschaft Ausgabe, Band 39 (pp.175-276) Leipzig: Breitkopf und Härtel, 1892. Plate B.W. XXXIX.
!!!END: 1994/05/13
!!!EMD: Converted from MuseData to Humdrum Dec 19, 2000, by Andreas Kornstaedt using muse2kern.
!!!EED: Craig Stuart Sapp
!!!EEV: 2024/03/31
!!!filter-keyboard: satb2gs
!!!title: @{OTL} (@{SCT})
